!!!COM: Leszczyński, Władysław
!!!CDT: 1616-1680
!!!TXO: Latin
!!!OTL@@LAT: Kyrie eleison
!!!ODT: 
!!!ARL: Klasztor OO. Paulinów na Jasnej Górze
!!!voices:	4
!!title: @{OTL}, @{GTL}, ed. @{ENC}
!!!pag:
!!!GTL: Missa cum Credo per Octavas
!!!EFL: 
!!!YEM: Creative Commons CC/BY/NC/SA 4.0
!!!ENC: Marcin Konik
!!!EED: Marcin Konik
!!!EEV: 
!!!ONB: Encoded in vim by Marcin Konik
!!!CharacterEncoding: utf-8
!!!RDF**kern: l=long note in original notation
!!!RDF**kern: i=editorial accidental
!!muse2ps: z14jc180F
!!!END: 2015-02-13
!!!YOO:
**kern	**text	**kern	**text	**kern	**text	**kern	**text
*part4	*part4	*part3	*part3	*part2	*part2	*part1	*part1
*staff4	*staff4	*staff3	*staff3	*staff2	*staff2	*staff1	*staff1
*clefF4	*	*clefGv2	*	*clefG2	*	*clefG2	*
*k[b-]	*	*k[b-]	*	*k[b-]	*	*k[b-]	*
*M3/1	*	*M3/1	*	*M3/1	*	*M3/1	*
=1-	=1-	=1-	=1-	=1-	=1-	=1-	=1-
1.G	Ky-	1.G	Ky-	1.d	Ky-	1.b-	Ky-
2E-\	-ri-	2c\	-ri-	2c/	-ri-	2g/	-ri-
2F\	-e	2c\	-e	2c/	-e	2a/	-e
2F\	e-	2c\	e-	2c/	e-	2a/	e-
=2	=2	=2	=2	=2	=2	=2	=2
1%2BB-	-ley-	1%2d	-ley-	1%2B-	-ley-	1%2b-	-ley-
1BB-	-son	1d	-son	1d	-son	1b-	-son
=3	=3	=3	=3	=3	=3	=3	=3
1BB-	e-	1f	e-	1d	e-	1dd	e-
1E-	-ley-	2e-\	.	1g	-ley-	2cc\	.
.	.	2d\	.	.	.	2b-\	.
1F	.	1c	-ley-	1f	.	1a	-ley-
=4	=4	=4	=4	=4	=4	=4	=4
1%2BB-	-son	1%2d	-son	1%2f	-son	1%2b-	-son
1G	Ky-	1G	Ky-	1d	Ky-	1b-	Ky-
=5	=5	=5	=5	=5	=5	=5	=5
1%2G	-ri-	1%2G	-ri-	1.d	-ri-	1%2b-	-ri-
.	.	.	.	2c/	-e	.	.
1G	-e	1G	-e	2d/	e-	1b-	-e
.	.	.	.	2e/	.	.	.
=6	=6	=6	=6	=6	=6	=6	=6
1%2.F	e-	1%2c	e-	1%2f	-ley-	1%2a	e-
.	.	1c	-ley-	1f	-son	1a	-ley-
=7	=7	=7	=7	=7	=7	=7	=7
1BB-	-ley-	1d	.	1%2f	e-	1b-	.
1F	.	1c	.	.	.	1a	.
1G	.	1B-	.	1d	-ley-	1g	.
=8	=8	=8	=8	=8	=8	=8	=8
1%2D	.	1%2A	-son	1%2d	-son	1%2f#	-son
1BB-	-Ky-	1d	Ky-	1f	[Ky-	1b-	Ky-
=9	=9	=9	=9	=9	=9	=9	=9
1%2BB-	-ri-	1%2d	-ri-	1%2f	-ri-	1.b-	-ri-
.	.	.	.	.	.	2a/	-[e]
1C	-e	1e-	-e	1c	-e	2g/	.
.	.	.	.	.	.	2a/	.
=10	=10	=10	=10	=10	=10	=10	=10
2D\	e-	1d	e-	1%2f	e-	1%2b-	e-
2E-\	.	.	.	.	.	.	.
1%2F	-ley-	1%2c	-ley-	.	.	.	.
.	.	.	.	1f	-ley-	1a	-ley-
=11	=11	=11	=11	=11	=11	=11	=11
1%2BB-	-son	1%2B-	-son	1%2d	-son	1%2b-	-son
1B-	Ky-	1d	Ky-	1f	Ky-	1b-	Ky-
=12	=12	=12	=12	=12	=12	=12	=12
1%2B-	-ri-	1%2d	-ri-	1%2f	-ri-	1%2b-	-ri-
1B-	-e	1d	-e	1f	-e]	1b-	-e
=13	=13	=13	=13	=13	=13	=13	=13
1%2F	e-	1%2c	e-	1r	.	1%2a	e-
.	.	.	.	2r	.	.	.
.	.	.	.	2e/	e-	.	.
1F	-ley-	1c	-ley-	2f/	.	1a	-ley-
.	.	.	.	2e/	.	.	.
=14	=14	=14	=14	=14	=14	=14	=14
1G	.	1B-	.	1d	-ley-	1%2g	.
1%2D	.	1%2A	.	1%2d	.	.	.
.	.	.	.	.	.	1f#	.
=15	=15	=15	=15	=15	=15	=15	=15
1%2GG	-son	1%2G	-son	1%2.d	-son	1%2g	-son
1G	e-	1B-	e-	.	.	1g	e-
=16	=16	=16	=16	=16	=16	=16	=16
1%2D	-ley-	1%2A	-ley-	1%2d	e-	1%2f#	-ley-
1G	.	1B-	.	2d/	-ley-	1g	.
.	.	.	.	2e/	.	.	.
=17	=17	=17	=17	=17	=17	=17	=17
1%2F	.	1%2c	.	1%2f	.	1%2.a	.
1F	.	1c	.	1f	.	.	.
=18	=18	=18	=18	=18	=18	=18	=18
2BB-/	-e-	1%2d	-e-	1%2f	-Ky-	1%2b-	-Ky-
2C/	.	.	.	.	.	.	.
2D\	.	.	.	.	.	.	.
2BB-/	.	.	.	.	.	.	.
1C	.	1c	.	1e-	-ri-	1g	-ri-
=19	=19	=19	=19	=19	=19	=19	=19
1%2D	.	1B-	-ley-	1d	-[e]	1%2g	-e
.	.	1%2A	.	1%2d	e-	.	.
1D	-ley-	.	.	.	.	1f#	e-
=20	=20	=20	=20	=20	=20	=20	=20
1%2GG	-son	1%2G	-son	1%2d	-ley-	1%2g	-ley-
1FF	e-	1A	Ky-	1f	-son	1cc	-son
=21	=21	=21	=21	=21	=21	=21	=21
1%2BB-	-ley-	1%2B-	-ri-	1%2f	e-	1%2dd	e-
1FF	.	1A	-e	1f	-ley-	1cc	-ley-
=22	=22	=22	=22	=22	=22	=22	=22
1GG	.	1%2G	e-	1d	.	1b-	.
1%2D	.	.	.	1%2d	.	1%2a	.
.	.	1F#	-ley-	.	.	.	.
=23	=23	=23	=23	=23	=23	=23	=23
1%2.GG	-son	1%2.G	-son	1%2.d	.	1%2.g	.
=24	=24	=24	=24	=24	=24	=24	=24
1%3r	.	1G	Ky-	1%3r	.	1%3r	.
.	.	1G	-ri-	.	.	.	.
.	.	1A	-e	.	.	.	.
=25	=25	=25	=25	=25	=25	=25	=25
1%3r	.	1.B-	e-	1d	-Ky-	1%3r	.
.	.	.	.	1d	-ri-	.	.
.	.	2B-\	-ley-	.	.	.	.
.	.	2A/	-son	1e	-e	.	.
.	.	2G/	.	.	.	.	.
=26	=26	=26	=26	=26	=26	=26	=26
1D	Ky-	1%2A	Chri-	1.f	e-	1%3r	.
1D	-ri-	.	.	.	.	.	.
.	.	.	.	2f/	-ley-	.	.
1E	-e	1G	-ste	2e/	-son	.	.
.	.	.	.	2d/	.	.	.
=27	=27	=27	=27	=27	=27	=27	=27
1.F	e-	1%2A	e-	1%2c	Chri-	1%3r	.
2F\	-ley-	.	.	.	.	.	.
2E\	-son	1B-	-ley-	1d	-ste	.	.
2D\	e-	.	.	.	.	.	.
=28	=28	=28	=28	=28	=28	=28	=28
1.C	-ley-	1%2c	.	1.e	Chri-	1g	-Ky-
.	.	.	.	.	.	1g	-ri-
2BB-/	.	.	.	2e/	-ste	.	.
1AA	-son	1c	-son	1f	e-	1a	-e
=29	=29	=29	=29	=29	=29	=29	=29
1GG	Chri-	1d	e-	2g/	-ley-	1.b-	e-
.	.	.	.	4f/	.	.	.
.	.	.	.	4e/	.	.	.
1GG	-ste	1d	-ley-	2d/	.	.	.
.	.	.	.	2e/	.	2b-\	-ley-
1AA	e-	1c	-son	2f/	.	2a/	-son
.	.	.	.	2e/	.	2g/	.
=30	=30	=30	=30	=30	=30	=30	=30
1.BB-	-ley-	1d	Chri-	1%2.d	-son	1f	Ky-
.	.	1d	-ste	.	.	1f	-ri-
2BB-/	-son	.	.	.	.	.	.
2AA/	e-	1e	e-	.	.	1g	.
2GG/	.	.	.	.	.	.	.
=31	=31	=31	=31	=31	=31	=31	=31
2FF/	-ley-	1.f	-ley-	1f	Chri-	1%2a	.
2D\	.	.	.	.	.	.	.
1D	-son	.	.	1f	-ste	.	.
.	.	2f\	-son	.	.	.	.
1E	e-	2e\	.	1g	e-	1g	.
.	.	2d\	.	.	.	.	.
=32	=32	=32	=32	=32	=32	=32	=32
1.F	.	2c\	Chri-	1.a	-ley-	1%3r	.
.	.	2A/	.	.	.	.	.
.	.	1A	-ste	.	.	.	.
2F\	-ley-	.	.	2a/	.	.	.
2E\	.	1B-	e-	2g/	.	.	.
2D\	.	.	.	2f/	.	.	.
=33	=33	=33	=33	=33	=33	=33	=33
1%2.C	-son	1.c	-ley-	1%2e	-son	1g	-Chri-
.	.	.	.	.	.	1g	-ste
.	.	2c\	.	.	.	.	.
.	.	2B-\	.	1f	e-	1a	e-
.	.	2A/	.	.	.	.	.
=34	=34	=34	=34	=34	=34	=34	=34
1%2.r	.	2G/	.	1%2g	-ley-	1.b-	-ley-
.	.	2A/	.	.	.	.	.
.	.	2B-\	.	.	.	.	.
.	.	2c\	.	.	.	2b-\	.
.	.	1d	.	1f	.	2a/	-son
.	.	.	.	.	.	2g/	.
=35	=35	=35	=35	=35	=35	=35	=35
1.G	Chri-	1%2.G	-son	1%2.g	-son	1b-	Chri-
.	.	.	.	.	.	2b-\	-ste
2G\	-ste	.	.	.	.	2cc\	.
1A	e-	.	.	.	.	2b-\	e-
.	.	.	.	.	.	2cc\	.
=36	=36	=36	=36	=36	=36	=36	=36
1.B-	-ley-	1d	Chri-	1f	Chri-	1.dd	-ley-
.	.	1d	-ste	1.f	-ste	.	.
2B-\	.	.	.	.	.	2dd\	.
2A\	.	1e	e-	.	.	2cc\	-son
2G\	.	.	.	2g/	e-	2b-\	.
=37	=37	=37	=37	=37	=37	=37	=37
1.F	-Chri-	2f\	-ley-	1.a	-ley-	1a	e-
.	.	2A/	.	.	.	.	.
.	.	1A	.	.	.	2cc\	-ley-
2E\	-ste	.	.	2a/	.	2b-\	.
1D	e-	1B-	.	2g/	-son	1b-	-son
.	.	.	.	2f/	.	.	.
=38	=38	=38	=38	=38	=38	=38	=38
1.C	-ley-	1.c	-son	1.e	Chri-	1g	Chri-
.	.	.	.	.	.	1g	-ste
2BB-/	.	2d\	e-	2d/	.	.	.
1AA	.	1c	-ley-	2e/	-ste	1a	e-
.	.	.	.	2f/	.	.	.
=39	=39	=39	=39	=39	=39	=39	=39
1%2GG	.	1%2.d	-son	1%2g	e-	1.b-	-ley-
.	.	.	.	.	.	2b-\	-son
1D	-son	.	.	1f#	-ley-	1a	.
=40	=40	=40	=40	=40	=40	=40	=40
1GG	Chri-	1B-	Chri-	1.g	.	1g	e-
1GG	-ste	1.B-	-ste	.	.	1dd	-ley-
.	.	.	.	2d/	-e-	.	.
1AA	e-	.	.	2f/	.	1cc	.
.	.	2c\	e-	2e/	.	.	.
=41	=41	=41	=41	=41	=41	=41	=41
1.BB-	-ley-	2d\	-ley-	2d/	.	1%2.b-	-son
.	.	2B-\	.	2e/	.	.	.
.	.	1B-	.	2f/	.	.	.
2BB-/	.	.	.	2d/	.	.	.
1AA	-e-	1c	-e-	2e/	.	.	.
.	.	.	.	2f/	.	.	.
=42	=42	=42	=42	=42	=42	=42	=42
2GG/	.	1%2d	-ley-	1%2g	-ley-	1%2.b-	e-
2AA/	.	.	.	.	.	.	.
2BB-/	.	.	.	.	.	.	.
2C/	.	.	.	.	.	.	.
1D	.	1B-	-son	1f	.	.	.
=43	=43	=43	=43	=43	=43	=43	=43
1E-	-ley-	1B-	e-	1%2e-	.	1%2g	-ley-
1C	.	1c	-ley-	.	.	.	.
1D	.	1A	.	1d	.	1f#	.
=44	=44	=44	=44	=44	=44	=44	=44
1%2.GG	-son	1%2.B	-son	1%2.d	-son	1%2.g	-son
=45	=45	=45	=45	=45	=45	=45	=45
1.G	Ky-	1.d	Ky-	1.g	Ky-	1.b-	Ky-
2G\	-ri-	2c\	-ri-	2d/	-ri-	2b-\	-ri-
1G	-e	2B-\	-e	1d	-e	1b-	-e
.	.	2A/	.	.	.	.	.
=46	=46	=46	=46	=46	=46	=46	=46
1.C	Ky-	1.G	Ky-	1.e	Ky-	1.cc	Ky-
2C/	-ri-	2G/	-ri-	2f/	-ri-	2cc\	-ri-
1C	.	1G	.	2g/	.	1cc	.
.	.	.	.	2e/	.	.	.
=47	=47	=47	=47	=47	=47	=47	=47
1.F	-Ky-	1.A	-Ky-	1.f	-Ky-	1.cc	-Ky-
2E\	-ri-	2A/	-ri-	2f/	-ri-	2cc\	-ri-
2D\	.	2A/	-e	1f	.	2b-\	-e
2C/	.	2A/	e-	.	.	2cc\	e-
=48	=48	=48	=48	=48	=48	=48	=48
1.BB-	-Ky-	1.B-	-ley-	1.f	-Ky-	1dd	-ley-
.	.	.	.	.	.	1dd	-son
2BB-/	-ri-	2B-\	-son	2g/	-ri-	.	.
1BB-	.	2B-\	Ky-	2a/	.	1dd	e-
.	.	2B-\	-ri-	2g/	.	.	.
=49	=49	=49	=49	=49	=49	=49	=49
1B-	-e-	1f	-e	1f	-e-	2dd\	-ley-
.	.	.	.	.	.	2cc\	.
1E-	-ley-	2e-\	e-	1g	-ley-	2b-\	.
.	.	2d\	.	.	.	2cc\	.
1F	.	1c	-ley-	1f	-son	1a	.
=50	=50	=50	=50	=50	=50	=50	=50
1%2.BB-	-son	1%2.d	-son	1.f	[Ky-	1%2.b-	-son
.	.	.	.	2e/	-ri-	.	.
.	.	.	.	2d/	-e]	.	.
.	.	.	.	2c/	.	.	.
=51	=51	=51	=51	=51	=51	=51	=51
1.BB-	Ky-	1%3r	.	1.B-	Ky-	1dd	Ky-
.	.	.	.	.	.	2dd\	-ri-
2C/	-ri-	.	.	2B-/	-ri-	2cc\	.
2D\	-e	.	.	1B-	-e	2dd\	-e
2E\	e-	.	.	.	.	2ee\	.
=52	=52	=52	=52	=52	=52	=52	=52
1%2F	-ley-	1.F	Ky-	1.A	Ky-	1.cc	Ky-
.	.	2G/	-ri-	2A/	-ri-	2cc\	-ri-
1F	-son	2A/	-e	1A	.	2cc\	-e
.	.	2B-\	e-	.	.	2cc\	e-
=53	=53	=53	=53	=53	=53	=53	=53
1.C	Ky-	1%2c	-ley-	1.e	-Ky-	1cc	-ley-
.	.	.	.	.	.	1cc	-son
2D\	-ri-	.	.	2e/	-ri-	.	.
2E\	.	1c	-son	2e/	.	2cc\	Ky-
2F\	-e-	.	.	2e/	-e-	2cc\	-ri-
=54	=54	=54	=54	=54	=54	=54	=54
1%2G	-ley-	1.d	Ky-	1%2d	-ley-	1%2b-	-e
.	.	2d\	-ri-	.	.	.	.
1G	.	2d\	-e	1d	-son	2b-\	Ky-
.	.	2d\	e-	.	.	2b-\	-ri-
=55	=55	=55	=55	=55	=55	=55	=55
1GG	-Ky-	1d	-ley-	1d	Ky-	1b-	.
1C	-ri-	1G	.	1e-	-ri-	2cc\	-e-
.	.	.	.	.	.	2b-\	.
1D	.	1A	-son	1d	-e	1a	-ley-
=56	=56	=56	=56	=56	=56	=56	=56
1G	-e-	1B-	e-	1d	e-	1%2.g	-son
1C	-ley-	2c\	.	1c	-ley-	.	.
.	.	2c\	-ley-	.	.	.	.
1D	.	1d	.	1d	.	.	.
=57	=57	=57	=57	=57	=57	=57	=57
1G	.	1B-	-son	1.d	-son	1%3r	.
1r	.	1r	.	.	.	.	.
.	.	.	.	2d/	e-	.	.
1r	.	1r	.	2e/	.	.	.
.	.	.	.	2f/	.	.	.
=58	=58	=58	=58	=58	=58	=58	=58
1G	-e-	1d	e-	1g	.	1b-	e-
1%2D	-ley-	1%2d	-ley-	1%2f#	-ley-	1%2a	-ley-
=59	=59	=59	=59	=59	=59	=59	=59
1%2.G	-son	1%2.d	.	1%2.g	-son	1%2.g	-son
==	==	==	==	==	==	==	==
*-	*-	*-	*-	*-	*-	*-	*-
